!!!COM: pink
!!!OTL: raise-your-glass
!!!RNB: hooktheoryid: DnZgWWBBgry
**kern	**text
*clefG2	*
*k[f#]	*
*M4/4	*
=1	=1
2r	.
8r	.
8g	.
8g	.
8g	.
=2	=2
8.g	G
8.g	.
8.g	D
8.g	.
8g	C
[8e	.
=3	=3
8e]	.
8e	.
8g	.
8e	.
4g	.
16g	.
8.a	.
=4	=4
8.g	C
8.g	.
8.dd	Em
8.dd	.
[4a	D
=5	=5
4a]	.
8g	.
8a	.
16b	.
16a	.
8g	.
16b	.
16a	.
8g	.
=6	=6
8.g	G
8.g	.
8.g	D
8.g	.
8g	C
[8e	.
=7	=7
8e]	.
8e	.
8g	.
8e	.
4g	.
16g	.
8.a	.
=8	=8
8.g	C
8.g	.
8.dd	Em
8.dd	.
[4a	D
=9	=9
4a]	.
8g	.
8a	.
16b	.
16a	.
8g	.
16b	.
16a	.
8g	.
=10	=10
4.g	G
4.g	D
[4g	C
=11	=11
8g]	.
4r	.
8g	.
16b	.
16a	.
8g	.
16b	.
16a	.
8g	.
=12	=12
4.g	C
4.g	Em
[4g	D
=13	=13
8g]	.
2..r	.
*-	*-